assets/img/Play.svg

<svg width="151" height="152" viewBox="0 0 151 152" fill="none" xmlns="http://www.w3.org/2000/svg">
<ellipse opacity="0.95" cx="75.5" cy="76.0072" rx="75" ry="75.0135" fill="white"/>
<path opacity="0.99" d="M60.1552 114.792C60.6655 114.592 60.8196 114.48 61.0917 114.35L64.1112 112.825L70.2043 109.752C72.1953 108.752 75.1468 107.285 77.8082 105.85C79.8092 104.777 81.6821 103.716 83.493 102.648C85.3039 101.579 87.0388 100.478 88.7517 99.3513C90.4645 98.2245 92.1533 97.0398 93.8482 95.821C95.509 94.6301 97.25 93.4533 99.1229 92.2585C100.996 91.0636 102.903 89.8989 104.822 88.6821C106.741 87.4653 108.662 86.1783 110.511 84.7693C112.36 83.3605 114.123 81.8435 115.793 80.2263L116.422 79.6259L117.022 79.0074L117.622 78.3869C117.822 78.1868 118.022 77.9867 118.239 77.7466C118.721 77.2386 119.151 76.6833 119.523 76.0894C119.747 75.7261 119.93 75.3396 120.069 74.9366C120.232 74.4656 120.32 73.9719 120.33 73.4736C120.333 73.2689 120.321 73.0642 120.294 72.8612C120.269 72.6583 120.228 72.4576 120.174 72.2608C120.071 71.892 119.924 71.5371 119.735 71.2041C119.432 70.6825 119.065 70.2005 118.643 69.7691C118.469 69.583 118.309 69.4228 118.134 69.2587L117.62 68.7684C117.282 68.4342 116.928 68.142 116.578 67.8398C115.196 66.672 113.755 65.5758 112.262 64.5555L111.711 64.1712L111.157 63.801L110.046 63.0625C109.298 62.5902 108.558 62.0998 107.803 61.6415L106.675 60.9471L105.54 60.2666C104.786 59.8103 104.023 59.374 103.263 58.9297C100.516 57.3426 97.7382 55.8235 94.9548 54.3265L92.8517 53.2097L90.7487 52.137L86.5466 49.9976L69.64 41.4457L65.4379 39.3302L63.3389 38.2735L62.8125 38.0093L62.5505 37.8772L62.4283 37.8152L62.3743 37.7852C62.3583 37.7852 62.4184 37.8092 62.4024 37.8012L62.3804 37.7871L62.3403 37.7612L62.2582 37.7111L62.0922 37.609C61.9796 37.5443 61.8626 37.4875 61.7421 37.439C61.622 37.3869 61.5059 37.3288 61.3839 37.2868L61.0076 37.1747C60.8697 37.1322 60.7285 37.1014 60.5854 37.0827C60.4413 37.0646 60.2993 37.0327 60.1552 37.0267L59.723 37.0146C59.5798 37.0166 59.4369 37.0266 59.2948 37.0446C59.01 37.0755 58.7283 37.1297 58.4524 37.2068C58.177 37.2906 57.9092 37.3977 57.652 37.527C57.3966 37.6548 57.1528 37.8048 56.9236 37.9753C56.8096 38.0613 56.7035 38.1595 56.5954 38.2515C56.5434 38.2996 56.4874 38.3455 56.4373 38.3956L56.2933 38.5557C55.904 38.9777 55.6002 39.4711 55.3988 40.0087L55.2627 40.409C55.2227 40.5451 55.2027 40.6832 55.1747 40.8213C55.1294 41.0568 55.0967 41.2947 55.0767 41.5338C55.0287 41.9721 54.9846 42.4083 54.9486 42.8446C54.8726 43.7192 54.8165 44.5918 54.7905 45.4644C54.7585 46.437 54.7184 47.656 55.0586 48.3965C55.2429 48.8523 55.4902 49.28 55.7931 49.6673C56.0152 49.9354 56.3112 50.0976 56.5554 49.9555C56.6371 49.9057 56.7057 49.8371 56.7555 49.7554C56.819 49.6536 56.8707 49.5448 56.9095 49.4312C56.9985 49.1536 57.0707 48.8709 57.1257 48.5846C57.3978 47.2757 57.5739 45.7726 57.756 44.3456L57.9561 42.8706L58.0641 42.1321L58.1202 41.7639C58.1311 41.6614 58.1491 41.5597 58.1742 41.4597C58.1893 41.4037 58.2013 41.3469 58.2102 41.2895C58.235 41.2399 58.2557 41.1884 58.2722 41.1354L58.2843 41.0974L58.3062 41.0614L58.3463 40.9914L58.3824 40.9193L58.4324 40.8573C58.5567 40.6768 58.721 40.5274 58.9126 40.421C59.1 40.3097 59.3087 40.2389 59.5252 40.2134C59.7417 40.1879 59.961 40.2082 60.1692 40.2728C60.2716 40.3049 60.3707 40.3464 60.4653 40.3969L60.5354 40.445L60.5714 40.467L60.6335 40.501L60.6535 40.515L60.7335 40.565C60.7876 40.5991 60.8376 40.6351 60.8936 40.6651L60.9917 40.7151L61.1597 40.8033L62.5045 41.5057C64.2894 42.4283 66.0862 43.3209 67.8831 44.2215L75.9612 48.2804L84.0793 52.3672L88.0813 54.3945L90.0823 55.4093L91.0828 55.9156L92.0713 56.432C95.1249 58.0331 98.1624 59.7122 101.144 61.4474C104.125 63.1826 107.063 64.9938 109.892 66.9191L111.247 67.8678L112.572 68.8464L113.858 69.8572C114.271 70.2054 114.683 70.5556 115.087 70.9098L115.665 71.4583C115.865 71.6384 116.065 71.8265 116.228 72.0106C116.521 72.2904 116.764 72.6196 116.944 72.9832C116.995 73.1064 117.024 73.2381 117.028 73.3716C117.034 73.5173 117.015 73.663 116.97 73.8019C116.835 74.1922 116.632 74.5553 116.37 74.8746C116.049 75.2814 115.703 75.6684 115.335 76.0334L114.184 77.2202C113.398 77.9888 112.614 78.7632 111.783 79.4917C110.149 80.9638 108.434 82.3429 106.645 83.6226C105.012 84.7994 103.319 85.9081 101.606 87.0129C99.8552 88.1416 98.1284 89.3205 96.4035 90.5213C95.9132 90.8616 95.423 91.2018 94.9388 91.552C94.4545 91.9023 93.9642 92.2405 93.486 92.5987L90.6186 94.7122C88.7137 96.1038 86.7794 97.45 84.8157 98.7509C80.8137 101.419 76.6576 103.895 72.4274 106.244C68.2253 108.562 63.9431 110.671 59.667 112.839C59.4476 112.945 59.2112 113.013 58.9686 113.039C58.7275 113.055 58.4855 113.027 58.2543 112.957C58.0227 112.882 57.8079 112.763 57.6219 112.606C57.4349 112.452 57.2808 112.261 57.1688 112.046C57.0567 111.831 56.989 111.595 56.9696 111.354L56.9596 111.263L56.9596 111.153L56.9596 110.929L56.9436 110.481L56.8795 108.68C56.7895 106.288 56.6895 103.896 56.6154 101.507C56.4634 96.6615 56.3513 91.8162 56.2252 86.9709C56.0991 82.1255 55.9651 77.3343 55.807 72.517C55.6489 67.6997 55.5249 62.8903 55.2707 58.085L55.0967 54.6367L55.0546 53.678C55.0627 53.3899 55.05 53.1018 55.0166 52.8155C54.9978 52.7542 54.9659 52.6977 54.9231 52.65C54.8802 52.6023 54.8275 52.5644 54.7685 52.5392C54.5344 52.4192 54.3102 52.7955 54.3162 53.2798C54.4283 62.0018 54.6985 70.7257 54.6564 79.4497C54.6444 81.6772 54.6204 83.8948 54.6564 86.1263L54.7544 92.8469L54.9786 106.292L55.0326 109.676L55.0467 110.521L55.0467 110.945L55.0467 111.155C55.0467 111.23 55.0467 111.282 55.0467 111.416C55.0707 111.885 55.1812 112.347 55.3728 112.777C55.5715 113.206 55.8468 113.596 56.1852 113.927C56.5239 114.251 56.9176 114.512 57.3478 114.698C57.7839 114.881 58.2498 114.982 58.7225 114.996C59.2086 115.018 59.6946 114.949 60.1552 114.792V114.792Z" fill="#282828" stroke="black" stroke-width="3"/>
</svg>

<svg width="151" height="152" fill="none" xmlns="http://www.w3.org/2000/svg"><ellipse opacity=".95" cx="75.5" cy="76.007" rx="75" ry="75.013" fill="#fff"/><path opacity=".99" d="M60.155 114.792c.51-.2.665-.312.937-.442l3.02-1.525 6.092-3.073c1.991-1 4.943-2.467 7.604-3.902a159.507 159.507 0 0 0 5.685-3.202 127.59 127.59 0 0 0 5.259-3.297 149.306 149.306 0 0 0 5.096-3.53 117.913 117.913 0 0 1 5.275-3.563c1.873-1.194 3.78-2.36 5.699-3.576 1.919-1.217 3.84-2.504 5.689-3.913a58.946 58.946 0 0 0 5.282-4.543l.629-.6.6-.619.6-.62c.2-.2.4-.4.617-.64.482-.508.912-1.064 1.284-1.658a5.81 5.81 0 0 0 .546-1.152c.163-.471.251-.965.261-1.463a4.18 4.18 0 0 0-.036-.613 4.222 4.222 0 0 0-.12-.6 4.703 4.703 0 0 0-.439-1.057 7.287 7.287 0 0 0-1.092-1.435 10.663 10.663 0 0 0-.509-.51l-.514-.49c-.338-.335-.692-.627-1.042-.93a53.15 53.15 0 0 0-4.316-3.284l-.551-.384-.554-.37-1.111-.739c-.748-.472-1.488-.962-2.243-1.42l-1.128-.695-1.135-.68c-.754-.457-1.517-.893-2.277-1.337a311.797 311.797 0 0 0-8.308-4.603l-2.103-1.117-2.103-1.073-4.202-2.14-16.907-8.551-4.202-2.116-2.1-1.056-.526-.265-.261-.132-.123-.062-.054-.03c-.016 0 .044.024.028.016l-.022-.014-.04-.026-.082-.05-.166-.102a2.805 2.805 0 0 0-.35-.17c-.12-.052-.236-.11-.358-.152l-.376-.112a2.56 2.56 0 0 0-.423-.092c-.144-.018-.286-.05-.43-.056l-.432-.012a5.223 5.223 0 0 0-1.27.192 5.064 5.064 0 0 0-1.53.768c-.113.086-.22.184-.328.276-.052.049-.108.095-.158.145l-.144.16a4.44 4.44 0 0 0-.894 1.453l-.136.4c-.04.136-.06.274-.088.412a6.752 6.752 0 0 0-.098.713c-.048.438-.092.874-.128 1.31a46.126 46.126 0 0 0-.158 2.62c-.032.973-.073 2.192.268 2.933.184.455.431.883.734 1.27.222.268.518.43.762.288a.6.6 0 0 0 .2-.2c.064-.101.116-.21.154-.324.09-.277.162-.56.217-.846.272-1.31.448-2.812.63-4.24l.2-1.474.108-.739.056-.368a2.21 2.21 0 0 1 .054-.304c.015-.056.027-.113.036-.17a.983.983 0 0 0 .062-.155l.012-.038.022-.036.04-.07.036-.072.05-.062c.125-.18.289-.33.48-.436a1.556 1.556 0 0 1 1.553-.024l.07.048.036.022.063.034.02.014.08.05c.054.034.104.07.16.1l.098.05.168.088 1.345.703c1.784.922 3.581 1.815 5.378 2.715l8.078 4.06 8.118 4.086 4.002 2.028 2.001 1.014 1 .507.99.516a235.402 235.402 0 0 1 9.072 5.015c2.981 1.736 5.919 3.547 8.748 5.472l1.355.949 1.325.978 1.286 1.011c.413.348.825.699 1.229 1.053l.578.548c.2.18.4.368.563.553.293.28.536.609.716.972.051.123.08.255.084.389.006.145-.013.291-.058.43-.135.39-.338.753-.6 1.073-.321.406-.667.793-1.035 1.158l-1.151 1.187c-.786.769-1.57 1.543-2.401 2.272a58.685 58.685 0 0 1-5.138 4.13c-1.633 1.177-3.326 2.286-5.039 3.39a176.76 176.76 0 0 0-5.203 3.51c-.49.34-.98.68-1.464 1.03s-.975.688-1.453 1.047l-2.867 2.113a154.246 154.246 0 0 1-5.803 4.039c-4.002 2.668-8.158 5.144-12.389 7.493-4.202 2.318-8.484 4.427-12.76 6.595-.22.106-.456.174-.698.2a2.007 2.007 0 0 1-.715-.082 1.876 1.876 0 0 1-.632-.351 1.807 1.807 0 0 1-.652-1.252l-.01-.091v-.334l-.016-.448-.065-1.801c-.09-2.392-.19-4.784-.264-7.173-.152-4.846-.264-9.69-.39-14.536s-.26-9.637-.418-14.454c-.158-4.817-.282-9.627-.536-14.432l-.174-3.448-.042-.959a5.989 5.989 0 0 0-.038-.862.442.442 0 0 0-.248-.277c-.235-.12-.459.256-.453.74.112 8.723.383 17.447.34 26.17-.012 2.228-.036 4.446 0 6.677l.098 6.72.225 13.446.054 3.384.014.845v.895c.024.469.134.931.326 1.361.199.429.474.819.812 1.15.339.324.733.585 1.163.771.436.183.902.284 1.374.298.487.022.973-.047 1.433-.204Z" fill="#282828" stroke="#000" stroke-width="3"/></svg>
